!!!!SEGMENT: pl-wtm--r-251-m_moniuszko-stanislaw--piesn-uwiezionego-mysliwca.krn
!!!cenid: 18xx:1657
!!!COM: Moniuszko, Stanisław
!!!COM-rismid: pe30008351
!!!CDT: 1819/05/05-1872/06/04
!!!CNT: Polish
!!!OTL: Pieśń uwięzionego myśliwca
!!!PDT:
!!!AGN: Secular
!!!SMS-siglum: PL-Wtm
!!!SMS-shelfmark: R 251/M
!!!SMS-shelfwork: W
!!!SMS-variant:
!!!SMS-altvar:
!!!NIFC-rismid: 1001063787
!!!URL-scan: http://repozytorium.nifc.pl/skany/pl-wtm-nut--r229m
!!!ONB-nifc:
!!!key:
**kern	**kern	**fing	**dynam	**kern	**text	**text	**dynam
*part2	*part2	*	*part2	*part1	*part1	*part1	*part1
*staff3	*staff2	*	*	*staff1	*staff1	*staff1	*
*Iforte	*Iforte	*	*	*Ivox	*	*	*
*I"Fortepian	*I"Fortepian	*	*	*I"[Voice]	*	*	*
*I'pf	*I'pf	*	*	*I'V	*	*	*
*clefF4	*clefG2	*	*	*clefG2	*	*	*
*k[b-e-]	*k[b-e-]	*	*	*k[b-e-]	*	*	*
*g:	*g:	*	*	*g:	*	*	*
*M2/4	*M2/4	*	*	*M2/4	*	*	*
*>[A,B,B,C]	*>[A,B,B,C]	*	*	*>[A,B,B,C]	*	*	*
=1	=1	=1	=1	=1	=1	=1	=1
*>A	*>A	*	*	*>A	*	*	*
*2\right	*2\right	*	*	*	*	*	*
!	!	!	!	!LO:TX:a:i:t=Allegretto.	!	!	!
!	!	!	!	!LO:TX:a:i:t=33. Pieśń uwięzionego myśliwca.	!	!	!
!	!	!	!	!LO:TX:a:i:t=z Dziewicy Jeziora.\nprzekład A. E. Odyńca.	!	!	!
!LO:TX:t=P:problem=all\right&colon; global	!	!	!	!	!	!	!
8g>L 8d> 8B- 8G'\	4rgg	.	.	2ryy	.	.	.
8g> 8d> 8B- 8G'\	.	.	.	.	.	.	.
8g> 8d> 8B- 8G'\	8rgg	.	.	.	.	.	.
.	8qeee-/	.	.	.	.	.	.
8g>J 8d> 8B- 8G\	(<16ddd/LL	.	.	.	.	.	.
.	16ccc#X/JJ	.	.	.	.	.	.
=2	=2	=2	=2	=2	=2	=2	=2
*tremolo	*	*	*	*	*	*	*
!LO:TX:t=P:problem=4x staccato	!	!	!	!	!	!	!
8g> 8d> 8B- 8G'\L	8ddd/)	.	.	2ryy	.	.	.
.	8qaa/	.	.	.	.	.	.
8g> 8d> 8B- 8G'\	(<16gg/LL	.	.	.	.	.	.
.	16ff#X/JJ	.	.	.	.	.	.
8g> 8d> 8B- 8G'\	8gg/)	.	.	.	.	.	.
.	(<8qccc/	.	.	.	.	.	.
8g> 8d> 8B- 8G'\J	16bb-/LL	.	.	.	.	.	.
.	16aa/JJ)	.	.	.	.	.	.
=3	=3	=3	=3	=3	=3	=3	=3
!	!LO:TX:t=P:problem=diminuendolikeaccent	!	!	!	!	!	!
8g> 8d> 8B- 8G\L	(<4bb-^>/	.	.	2ryy	.	.	.
8g> 8d> 8B- 8G\	.	.	.	.	.	.	.
8g> 8d> 8B- 8G\	8dd/)	.	.	.	.	.	.
.	8qaa/	.	.	.	.	.	.
8g> 8d> 8B- 8G\J	(<16gg/LL	.	.	.	.	.	.
.	16ff#X/JJ	.	.	.	.	.	.
=4	=4	=4	=4	=4	=4	=4	=4
8g> 8d> 8B- 8G\L	8gg/)	.	.	2ryy	.	.	.
.	8qcc/	.	.	.	.	.	.
8g> 8d> 8B- 8G\	(<16b-/LL	.	.	.	.	.	.
.	16a/JJ	.	.	.	.	.	.
8g> 8d> 8B- 8G\J	8b-/)	.	.	.	.	.	.
.	8qff/	.	.	.	.	.	.
8e-> 8c> 8A 8G\	(<16ee-/LL	.	.	.	.	.	.
.	16dd/JJ)	.	.	.	.	.	.
=5	=5	=5	=5	=5	=5	=5	=5
!	!LO:TX:t=P:problem=diminuendolikeaccent	!	!	!	!	!	!
8e-> 8c> 8A 8G\L	(<4ee-^>/	.	.	2ryy	.	.	.
8e-> 8c> 8A 8G\	.	.	.	.	.	.	.
8e-> 8c> 8A 8G\	8a/)	.	.	.	.	.	.
.	8qff/	.	.	.	.	.	.
8e-> 8c> 8A 8G\J	(<16ee-/LL	.	.	.	.	.	.
.	16dd/JJ)	.	.	.	.	.	.
=6	=6	=6	=6	=6	=6	=6	=6
!	!LO:TX:t=P:problem=diminuendolikeaccent	!	!	!	!	!	!
8e-> 8c> 8A 8G\L	(<4ee-^>/	.	.	2ryy	.	.	.
8e-> 8c> 8A 8G\	.	.	.	.	.	.	.
8e-> 8c> 8A 8G\	8a/)	.	.	.	.	.	.
.	8qee-/	.	.	.	.	.	.
8e-> 8c> 8A 8G\J	16dd/LL	.	.	.	.	.	.
.	16cc#X/JJ	.	.	.	.	.	.
!!LO:LB:g=original
=7	=7	=7	=7	=7	=7	=7	=7
!LO:TX:t=P:problem=diminuendolikeaccent	!LO:TX:t=P:problem=diminuendolikeaccent	!	!	!	!	!	!
(>8dL 8B-^<\	(<4dd^>/	.	.	2r	.	.	.
8c 8A\	.	.	.	.	.	.	.
8B- 8G\)	8g/)	.	.	.	.	.	.
8AJ 8F'\	(16a/LL	.	.	.	.	.	.
.	16b-/JJ	.	.	.	.	.	.
=8!|:	=8!|:	=8!|:	=8!|:	=8!|:	=8!|:	=8!|:	=8!|:
*>B	*>B	*	*	*>B	*	*	*
!	!LO:TX:t=P:problem=diminuendolikeaccent	!	!	!	!	!	!
8GL 8E-'\	8cc^</L	.	.	2r	.	.	.
8F 8D'\	(<8b-/)	.	.	.	.	.	.
8E- 8C'\	8a/J)	.	.	.	.	.	.
8D'\J	(<16b-/LL	.	.	.	.	.	.
.	16a/JJ	.	.	.	.	.	.
=9	=9	=9	=9	=9	=9	=9	=9
8GG/	8g/)	.	.	2r	.	.	.
*	*tremolo	*	*	*	*	*	*
!LO:TX:t=P:problem=3x staccato	!LO:TX:t=P:problem=3x staccato	!	!	!	!	!	!
8B- 8G'\L	8g 8d'/L	.	.	.	.	.	.
8B- 8G'\	8g 8d'/	.	.	.	.	.	.
8B- 8G'\J	8g 8d'/J	.	.	.	.	.	.
=10	=10	=10	=10	=10	=10	=10	=10
8B- 8G\L	8g 8d/L	.	.	(>8.d/L	1. Smu-	3. Kie-	.
8B- 8G\	8g 8d/	.	.	.	.	.	.
.	.	.	.	16g/Jk)	.	.	.
8B- 8G\	8g 8d/	.	.	8g/	-tny	-dyż	.
8B- 8G\J	8g 8d/J	.	.	8b-/	mój	znów	.
=11	=11	=11	=11	=11	=11	=11	=11
*	*^	*	*	*	*	*	*
*	*	*Xtremolo	*	*	*	*	*	*
8B- 8G\L	8g/L	8d\L	.	.	4.b-/	so-	kie-	.
8B- 8G\	24a/L	8d\	.	.	.	.	.	.
.	24g/	.	.	.	.	.	.	.
.	24f#X/JJ	.	.	.	.	.	.	.
*	*Xtremolo	*	*	*	*	*	*	*
8B- 8G\	8g/L	8d\	.	.	.	.	.	.
8B- 8G\J	8g/J	8d\J	.	.	8g/	-kół	-dy	.
*	*v	*v	*	*	*	*	*	*
=12	=12	=12	=12	=12	=12	=12	=12
*	*tremolo	*	*	*	*	*	*
!	!	!	!LO:HP:b	!	!	!	!LO:HP:a
8B- 8G\L	8g 8d/L	.	<	8a/L	skrzy-	uj-	<
8B- 8G\	8g 8d/	.	.	8b-/J	.	.	.
8B- 8G\	8g 8d/	.	.	8cc/	-dła-	-rzę	.
8B- 8G\J	8g 8d/J	.	[	8dd/	-mi	blask	[
!!LO:LB:g=original
=13	=13	=13	=13	=13	=13	=13	=13
*	*^	*	*	*	*	*	*
*	*Xtremolo	*	*	*	*	*	*	*
8c 8G\L	8g/L	8e-\L	.	.	4.ee-\	bi-	już	.
*	*	*Xtuplet	*	*	*	*	*	*
!	!	!	!	!LO:HP:b	!	!	!	!
8c 8G\	8g/	24f\L	.	>	.	.	.	.
.	.	24e-\	.	.	.	.	.	.
.	.	24d\JJ	.	.	.	.	.	.
8c 8G\	8g/	8e-\L	.	.	.	.	.	.
8c 8G\J	8g/J	8e-\J	.	]	8ee-\	-je,	tu	.
*	*v	*v	*	*	*	*	*	*
=14	=14	=14	=14	=14	=14	=14	=14
*	*tremolo	*	*	*	*	*	*
8c 8F#X\L	8a 8d/L	.	.	(>8dd\	chart	z o-	.
8c 8F#X\J	8a 8d/J	.	.	8a/)	.	.	.
8B-L 8G\	8b-L 8d/	.	.	8b-/	mój	-czu	.
8cJ 8A\	8ccJ 8d/	.	.	8f#X/	zam-	He-	.
=15	=15	=15	=15	=15	=15	=15	=15
(>8B-\L	(<8ddL 8d/	.	.	4.g/	-knię-	-le-	.
!	!	!	!LO:HP:b	!	!	!	!
8A\)	8f#X 8d/)	.	<	.	.	.	.
8G'\	8g/	.	.	.	.	.	.
8Fn'\J	16a/L	.	.	16a/LL	-ty	-ny	.
.	16b-/JJ	.	.	16b-/JJ	.	.	.
=16	=16	=16	=16	=16	=16	=16	=16
*	*^	*	*	*	*	*	*
8E-\L	8cc/L	8g\L	.	[	8cc/L	skom-	z nie-	.
8D\	8dd/	8g\	.	.	8b-/J	.	.	.
!	!	!	!	!LO:HP:b	!	!	!	!
8C\	(<8.ee-/	8g\	.	>	8.a/	-li	-bios	.
8D\J	.	8f#X\J	.	.	.	.	.	.
.	32dd/LL	.	.	.	32b-/LLL	i	błę-	.
.	32cc/JJJ	.	.	]	32a/JJJ	.	.	.
=17	=17	=17	=17	=17	=17	=17	=17	=17
8G'\L	8b-/)	8g\	.	.	4.g/	wy-	-ki-	.
!	!LO:TX:b:i:t=legier.	!	!	!	!	!	!	!
.	8qaa/	.	.	.	.	.	.	.
(>8e- 8c 8G\	(>16gg\LL	8rcyy	.	.	.	.	.	.
.	16ff#X\JJ	.	.	.	.	.	.	.
8dJ 8B- 8G\)	8gg\)	4rcyy	.	.	.	.	.	.
8B- 8G'\	8g 8d/	.	.	.	8d/	-je.	-tu?	.
*	*v	*v	*	*	*	*	*	*
!!LO:LB:g=original
=18	=18	=18	=18	=18	=18	=18	=18
8B- 8G\L	8g 8d/L	.	.	8d/L	Koń	Kie-	.
8B- 8G\	8g 8d/	.	.	8g/J	.	.	.
8B- 8G\	8g 8d/	.	.	8g/	się	-dyż	.
8B- 8G\J	8g 8d/J	.	.	8b-/	mój	znów,	.
=19	=19	=19	=19	=19	=19	=19	=19
*	*^	*	*	*	*	*	*
*	*Xtremolo	*	*	*	*	*	*	*
8B- 8G\L	8g/L	8d\L	.	.	4.b-/	zży-	kie-	.
8B- 8G\	8g/	24e-X\L	.	.	.	.	.	.
.	.	24d\	.	.	.	.	.	.
.	.	24c#X\JJ	.	.	.	.	.	.
*	*	*Xtremolo	*	*	*	*	*	*
8B- 8G\	8g/	8d\L	.	.	.	.	.	.
8B- 8G\J	8g/J	8d\J	.	.	8g/	-ma	-dy	.
*	*v	*v	*	*	*	*	*	*
=20	=20	=20	=20	=20	=20	=20	=20
!	!	!	!LO:HP:b	!	!	!	!LO:HP:a
8B- 8G\L	8aL 8d/	.	<	8a/L	i	wra-	<
8B- 8G\	8b- 8d/	.	.	8b-/J	.	.	.
8B- 8G\	8cc 8d/	.	.	8cc\	rży	-ca-	.
8B- 8G\J	8b-J 8d/	.	[[	8dd\	przy	-jąc	[
=21	=21	=21	=21	=21	=21	=21	=21
*	*	*	*	*2\right	*	*	*
*	*^	*	*	*	*	*	*
*	*	*tremolo	*	*	*	*	*	*
!	!LO:TX:t=P:problem=diminuendolikeaccent	!	!	!	!	!	!	!
!	!	!	!	!LO:DY:b:t=f.	!	!	!	!
8c 8C\L	(<8.a-X^>/L	8e-\L	.	f	[>2ee-\	żło-	z bo-	.
8c 8C\	.	8e-\	.	.	.	.	.	.
.	16g/K)	.	.	.	.	.	.	.
!	!LO:TX:t=P:problem=diminuendolikeaccent	!	!	!	!	!	!	!
8c 8C\	(<8.a-^>/	8e-\	.	.	.	.	.	.
8c 8C\J	.	8e-\J	.	.	.	.	.	.
.	16g/Jk)	.	.	.	.	.	.	.
*	*v	*v	*	*	*	*	*	*
=22	=22	=22	=22	=22	=22	=22	=22
*	*Xtremolo	*	*	*	*	*	*
!LO:TX:t=P:problem=diminuendolikeaccent	!	!	!	!	!	!	!
!	!	!	!	!	!	!	!LO:HP:a
(<8.C^</L	8a-XL 8e- 8c/	.	.	8.ee-\]	.	-ru	>
.	8g 8e- 8B-/	.	.	.	.	.	.
16D-X/K)	.	.	.	16b-\	-bie,	o-	.
!LO:TX:t=P:problem=diminuendolikeaccent	!	!	!	!	!	!	!
(<8.C^</	8a- 8e- 8c/	.	.	8.cc\	pan	-de-	.
.	8gJ 8e- 8B-/	.	.	.	.	.	.
16D-/Jk)	.	.	.	16g/	ich	-tchnę	]
=23	=23	=23	=23	=23	=23	=23	=23
*	*tremolo	*	*	*	*	*	*
!	!	!	!	!LO:TX:a:t=P:problem=♭ above	!	!	!
8C/L	8a-X 8e-/L	.	.	4.a-X/	w wię-	wol-	.
8C/J	8a-X 8e-/J	.	.	.	.	.	.
8B- 8C#X/L	8g 8en/L	.	.	.	.	.	.
8B- 8C#X/J	8g 8en/J	.	.	8g/	-zach	-no	.
!!LO:LB:g=original
=24	=24	=24	=24	=24	=24	=24	=24
8B-L 8D\	8gL 8d/	.	.	4b-/	tęs-	wo-	.
8B- 8E-\	8g 8c#X/	.	.	.	.	.	.
8B- 8D\	8g 8d/	.	.	8.g/	-kni	-nią	.
8B-J 8C#X\	8gJ 8en/	.	.	.	.	.	.
!	!	!	!	!LO:TX:a:i:t=a	!	!	!
.	.	.	.	16a/	sam	wie-	.
=25	=25	=25	=25	=25	=25	=25	=25
8A 8D\	8f#X 8d/	.	.	8f#X/	so-	-czo-	.
8dL 8A 8F#X 8D'\	8r	.	.	8d/	-bie.	-ru.	.
8dJ 8A 8F# 8D'\	8r	.	.	4r	.	.	.
!	!	!	!LO:DY:b:t=pp.	!	!	!	!
.	8qbb-/	.	pp	.	.	.	.
8e-' 8B- 8G 8D\	(>16aa-X\LL	.	.	.	.	.	.
.	16gg\JJ	.	.	.	.	.	.
=26	=26	=26	=26	=26	=26	=26	=26
*tremolo	*	*	*	*	*	*	*
8e- 8B- 8G 8D\L	8aa-X\)	.	.	2r	.	.	.
!	!	!	!LO:HP:b	!	!	!	!
.	8qff/	.	<	.	.	.	.
8e- 8B- 8G 8D\	(>16ee-\LL	.	.	.	.	.	.
.	16dd\JJ	.	.	.	.	.	.
8e- 8B- 8G 8D\	8ee-\)	.	.	.	.	.	.
.	(<8qb-/	.	.	.	.	.	.
8e- 8B- 8G 8D\J	16a-X/LL	.	[	.	.	.	.
.	16g/JJ)	.	.	.	.	.	.
=27	=27	=27	=27	=27	=27	=27	=27
!	!	!	!LO:HP:b	!	!	!	!
8e-L 8B- 8G 8D\	4a-X/	.	sf >	2r	.	.	.
8c#X 8B- 8G 8D\	.	.	.	.	.	.	.
8d 8B- 8G 8D\	8g/	.	]	.	.	.	.
!	!	!	!LO:DY:b:t=pp.	!	!	!	!
8dJ 8B- 8G 8D\	(>16b-\LL	.	pp	.	.	.	.
.	16cc\JJ	.	.	.	.	.	.
=28	=28	=28	=28	=28	=28	=28	=28
8d 8A 8F#X 8D\L	8dd\)	.	.	2r	.	.	.
8d 8A 8F#X 8D\J	(<16f#X/LL	.	.	.	.	.	.
.	16g/JJ	.	.	.	.	.	.
8en 8A 8G 8D\L	8a/)	.	.	.	.	.	.
8en 8A 8G 8D\J	(>16bn\LL	.	.	.	.	.	.
.	16cc#X\JJ	.	.	.	.	.	.
!!LO:PB:g=original
=29	=29	=29	=29	=29	=29	=29	=29
!	!	!	!LO:TX:a:t=P:problem=w źródle brak zakończenia łuku	!	!	!	!
8d 8A 8F#X 8D\L	4dd\)	.	.	2r	.	.	.
8d 8A 8F#X 8D\	.	.	.	.	.	.	.
8d 8A 8F#X 8D\J	8r	.	.	.	.	.	.
!	!	!	!LO:DY:b:t=f.	!	!	!	!
.	8qbb-/	.	f	.	.	.	.
8A-X 8E- 8C\	(>16aa-X\LL	.	.	.	.	.	.
.	16gg\JJ	.	.	.	.	.	.
=30	=30	=30	=30	=30	=30	=30	=30
8A-X 8E- 8C\L	8aa-X\)	.	.	2r	.	.	.
.	8qff/	.	.	.	.	.	.
8A-X 8E- 8C\	(>16ee-\LL	.	.	.	.	.	.
.	16dd\JJ	.	.	.	.	.	.
8A-X 8E- 8C\	8ee-\)	.	.	.	.	.	.
.	8qb-/	.	.	.	.	.	.
8A-X 8E- 8C\J	(<16a-X/LL	.	.	.	.	.	.
.	16g/JJ)	.	.	.	.	.	.
=31	=31	=31	=31	=31	=31	=31	=31
!	!	!	!LO:HP:b	!	!	!	!
8A-X 8E- 8C\L	(<4a-X/	.	sf >	2r	.	.	.
8A-X 8E- 8C\J	.	.	.	.	.	.	.
8AnL 8En 8C#X\	8g/)	.	.	.	.	.	.
!	!	!	!LO:DY:b:t=ff.	!	!	!	!
8B-J 8G 8D\	(<16b-/LL	.	] ff	.	.	.	.
.	16cc/JJ	.	.	.	.	.	.
=32	=32	=32	=32	=32	=32	=32	=32
8B- 8G 8D\	8dd\)	.	.	2r	.	.	.
8r	8r	.	.	.	.	.	.
4r	8.r	.	.	.	.	.	.
!	!	!	!LO:DY:b:t=p.	!	!	!	!
.	(<32d/LLL	.	p	.	.	.	.
.	32e-/JJJ)	.	.	.	.	.	.
=33	=33	=33	=33	=33	=33	=33	=33
!LO:N:vis=8	!	!	!	!	!	!	!
4F#X 4DD/	4d 4c 4A/	.	.	2r;>	.	.	.
4r;>	4r;>	.	.	.	.	.	.
*kcancel	*kcancel	*	*	*kcancel	*	*	*
=34||	=34||	=34||	=34||	=34||	=34||	=34||	=34||
*k[f#]	*k[f#]	*	*	*k[f#]	*	*	*
!LO:TX:t=P:problem=w źródle znaki przykluczowe BBn En F#	!LO:TX:t=P:problem=w źródle znaki przykluczowe bn een f#	!	!	!LO:TX:t=P:problem=w źródle znaki przykluczowe bn een f#	!	!	!
8G'\L	16B/LL	.	.	4g/	Kie-	a	.
.	16e/	.	.	.	.	.	.
8d'\J	16g/	.	.	.	.	.	.
.	16e/JJ	.	.	.	.	.	.
8G'\L	16B/LL	.	.	8d/	-dyż	wi-	.
.	16e/	.	.	.	.	.	.
8d'\J	16g/	.	.	8b/	znow,	-ta-	.
.	16e/JJ	.	.	.	.	.	.
!!LO:LB:g=original
=35	=35	=35	=35	=35	=35	=35	=35
*Xtremolo	*	*	*	*	*	*	*
8G'\L	16B/LL	.	.	4.a/	Kie-	-ją-	.
.	16e/	.	.	.	.	.	.
8d'\	16g/	.	.	.	.	.	.
.	16e/JJ	.	.	.	.	.	.
8G'\	16B/LL	.	.	.	.	.	.
.	16e/	.	.	.	.	.	.
8d'\J	16g/	.	.	8g/	-dy,	-cy,	.
.	16e/JJ	.	.	.	.	.	.
=36	=36	=36	=36	=36	=36	=36	=36
!	!	!	!	!	!	!	!LO:HP:a
8A'\L	16c/LL	.	.	8f#/L	w dzi-	i	<
.	16e/	.	.	.	.	.	.
8d'\	16f#/	.	.	8g/J	.	.	.
.	16e/JJ	.	.	.	.	.	.
8A'\	16c/LL	.	.	8a/	-kich	po-	.
.	16e/	.	.	.	.	.	.
8d'\J	16f#/	.	.	8b/	dą-	-wi-	[
.	16e/JJ	.	.	.	.	.	.
=37	=37	=37	=37	=37	=37	=37	=37
!	!	!	!	!	!	!	!LO:HP:a
8F#\L	16c/LL	.	.	4.cc\	-bro-	-ta-	>
.	16e/	.	.	.	.	.	.
8d\	16a/	.	.	.	.	.	.
.	16e/JJ	.	.	.	.	.	.
8F#\	16c/LL	.	.	.	.	.	.
.	16e/	.	.	.	.	.	.
8d\J	16a/	.	.	8cc\	-wach,	-ny,	]
.	16e/JJ	.	.	.	.	.	.
=38	=38	=38	=38	=38	=38	=38	=38
!	!	!	!LO:DY:b:t=pia	!	!	!	!
8G\L	16c/LL	.	p	4cc\	bę-	u	.
.	16e/	.	.	.	.	.	.
!	!	!	!LO:DY:b:t=forte.	!	!	!	!
8d\	16g/	.	f	.	.	.	.
.	16e/JJ	.	.	.	.	.	.
8G\	16c/LL	.	.	8.g/	-dziem	nóg	.
.	16e/	.	.	.	.	.	.
8d\J	16g/	.	.	.	.	.	.
.	16e/JJ	.	.	16ee\	je-	jej	.
=39	=39	=39	=39	=39	=39	=39	=39
8G\L	16c/LL	.	.	4.dd\	-le-	zło-	.
.	16e/	.	.	.	.	.	.
8d\	16g/	.	.	.	.	.	.
.	16e/JJ	.	.	.	.	.	.
8G\	16c/LL	.	.	.	.	.	.
.	16e/	.	.	.	.	.	.
8d\J	16g/	.	.	8cc\	-nia	-żę	.
.	16e/JJ	.	.	.	.	.	.
=40	=40	=40	=40	=40	=40	=40	=40
*	*^	*	*	*	*	*	*
8G\L	16fn/LL	8d\L	.	.	8b\L	ści-	łup	.
.	16g/	.	.	.	.	.	.	.
8G\	16e/	8c\	.	.	8cc\J	.	.	.
.	16f/JJ	.	.	.	.	.	.	.
8G\	16d/LL	8B\	.	.	8dd\	-gać	po-	.
.	16e/	.	.	.	.	.	.	.
8G\J	16c/	8A\J	.	.	8ee\	na	-zys-	.
.	16d/JJ	.	.	.	.	.	.	.
*	*v	*v	*	*	*	*	*	*
!!LO:LB:g=original
=41	=41	=41	=41	=41	=41	=41	=41
8G 8GG/	8B/L	.	.	4.ffn\	ło-	-ka-	.
(<16Fn/LL	8d 8B/	.	.	.	.	.	.
16G/JJ	.	.	.	.	.	.	.
16E/LL	8g 8d 8B/	.	.	.	.	.	.
16F/JJ	.	.	.	.	.	.	.
16D/LL	8gJ 8fn 8B/	.	.	8dd\	-wach	-ny	.
16E/JJ)	.	.	.	.	.	.	.
=42	=42	=42	=42	=42	=42	=42	=42
!	!	!	!LO:DY:b:t=f.	!	!	!	!LO:HP:a
8C'\L	16e/LL	.	f	4ee\	na	i	>
.	16g/	.	.	.	.	.	.
8cJ 8G'\	16ee 16cc 16a/	.	.	.	.	.	.
.	16g/JJ	.	.	.	.	.	]
8C\L	16e/LL	.	.	8cc\	rą-	znów	.
.	16g/	.	.	.	.	.	.
8cJ 8G\	16ee 16cc 16a/	.	.	8a\	-czym	jak	.
.	16g/JJ	.	.	.	.	.	.
=43	=43	=43	=43	=43	=43	=43	=43
*^	*	*	*	*	*	*	*
8CC/	4rDDDyy	16d/LL	.	.	4.dd\	Ko-	Kie-	.
.	.	16f#X/	.	.	.	.	.	.
(<24D/LL	.	16dd 16a/	.	.	.	.	.	.
24C/	.	.	.	.	.	.	.	.
.	.	16f#/JJ	.	.	.	.	.	.
24BB/JJ	.	.	.	.	.	.	.	.
!LO:TX:t=P:problem=mixed beam	!	!	!	!	!	!	!	!
4C/)	8C\L^>	16d/LL	.	.	.	.	.	.
.	.	16f#/	.	.	.	.	.	.
!	!	!	!	!	!	!	!	!LO:HP:a
.	8CC'/J	16dd 16a/	.	.	8dd\	-niu,	-dyś,	>
.	.	16f#/JJ	.	.	.	.	.	.
*v	*v	*	*	*	*	*	*	*
=44	=44	=44	=44	=44	=44	=44	=44
8C\L	16e/LL	.	.	4ee\	z ser-	wzrok	.
.	16g/	.	.	.	.	.	.
8cJ 8G\	16ee 16cc 16a/	.	.	.	.	.	.
.	16g/JJ	.	.	.	.	.	.
8C\L	16e/LL	.	.	8.cc\	-cem	jej	]
.	16g/	.	.	.	.	.	.
8cJ 8G\	16ee 16cc 16a/	.	.	.	.	.	.
.	16g/JJ	.	.	16a\	we-	do-	.
=45	=45	=45	=45	=45	=45	=45	=45
8CC/	16d/LL	.	.	4.dd\	-so-	-bro-	.
.	16f#X/	.	.	.	.	.	.
!LO:TUP:a:problem=klamra łukowa (po stronie główek nut)	!	!	!	!	!	!	!
24D/LL	16dd 16a/	.	.	.	.	.	.
24C/	.	.	.	.	.	.	.
.	16f#/JJ	.	.	.	.	.	.
24BB/JJ	.	.	.	.	.	.	.
8C/L	16d/LL	.	.	.	.	.	.
.	16f#/	.	.	.	.	.	.
8AA/J	16dd 16a/	.	.	8cc\	-łém,	-ci,	.
.	16f#/JJ	.	.	.	.	.	.
=46	=46	=46	=46	=46	=46	=46	=46
!LO:TX:t=P:problem=mixed beam	!	!	!	!	!	!	!LO:DY:a
!	!	!	!	!LO:TX:t=P:problem=tekst słowny poprawiony przez głównego skryptora; przed poprawieniem kolejność słów - "z swobodną myślą"	!	!	!LO:HP:a
!	!LO:TX:b:i:t=cres. cen. do.:problem=dynamics with dot extensions	!	!LO:HP:b:i:t=cres. ce. do.:ext=ud	!	!	!	!
16GG/LL	16d/LL	.	<	4b\	z my-	Kie-	<
16D/	16b/	.	.	.	.	.	.
16B\	16dd 16g/	.	.	.	.	.	.
16D/JJ	16b/JJ	.	.	.	.	.	.
!LO:TX:t=P:problem=mixed beam	!	!	!	!	!	!	!
16GG/LL	16d/LL	.	.	8cc\	-ślą	-dyż,	.
16D/	16b/	.	.	.	.	.	.
16B\	16dd 16g/	.	.	8dd\	swo-	ach	[[
16D/JJ	16b/JJ	.	.	.	.	.	.
=47	=47	=47	=47	=47	=47	=47	=47
*	*	*^	*	*	*	*	*
!LO:TX:t=P:problem=mixed beam	!	!	!	!	!	!	!	!LO:DY:a
!	!	!	!	!	!	!	!	!LO:HP:a
16GG/LL	(<16f#/LL	.	1	.	4.dd\	-bod-	Kie-	>
16D/	16a/JJ)	.	2	.	.	.	.	.
!	!LO:TUP:a:problem=klamra łukowa (po stronie główek nut)	!	!	!	!	!	!	!
16c\	24ee/LL	.	.	.	.	.	.	.
.	24dd/	.	.	.	.	.	.	.
16D/JJ	.	.	.	.	.	.	.	.
.	24cc#X/JJ	.	.	.	.	.	.	.
!LO:TX:t=P:problem=mixed beam	!	!	!	!	!	!	!	!
16GG/LL	(<16dd/LL	.	.	.	.	.	.	.
16D/	16a/	.	1	.	.	.	.	.
16c\	16dd 16f#/	.	2	.	8a\	-ną	-dy	]]
16D/JJ	16a/JJ)	.	3	.	.	.	.	.
*	*	*v	*v	*	*	*	*	*
!!LO:LB:g=original
=48	=48	=48	=48	=48	=48	=48	=48
!LO:TX:t=P:problem=mixed beam	!	!	!	!	!	!	!LO:HP:a
16GG/LL	16d/LL	.	.	(>8.b\L	z psem	szczę-	<
16D/	16b/	.	.	.	.	.	.
16B\	16dd 16g/	.	.	.	.	.	.
16D/JJ	16b/JJ	.	.	16cc\Jk)	.	.	.
!LO:TX:t=P:problem=mixed beam	!	!	!	!	!	!	!
16GG/LL	16d/LL	.	[	8.ee\	i	-ście	[
16D/	16b/	.	.	.	.	.	.
16B\	16dd 16g/	.	.	.	.	.	.
16D/JJ	16b/JJ	.	.	16dd\	z so-	mi	.
=49	=49	=49	=49	=49	=49	=49	=49
!LO:TX:t=P:problem=mixed beam	!	!	!	!	!	!	!LO:HP:a
16GG/LL	16f#/LL	.	.	4.dd\	-ko-	wró-	>
16D/	16a/JJ	.	.	.	.	.	.
!	!LO:TUP:a:problem=klamra łukowa (po stronie główek nut)	!	!	!	!	!	!
16c\	24ee/LL	.	.	.	.	.	.
.	24dd/	.	.	.	.	.	.
16D/JJ	.	.	.	.	.	.	.
.	24cc#X/JJ	.	.	.	.	.	.
!LO:TX:t=P:problem=mixed beam	!	!	!	!	!	!	!
16GG/LL	16dd/LL	.	.	.	.	.	.
*	*	*^	*	*	*	*	*
16D/	16a/	.	1	.	.	.	.	.
16A\	16dd 16f#/	.	2	.	8cc\	-łem,	-ci,	]
16D/JJ	16a/JJ	.	3	.	.	.	.	.
*	*	*v	*v	*	*	*	*	*
=50	=50	=50	=50	=50	=50	=50	=50
!	!	!	!LO:HP:b	!LO:TX:t=P:problem=tekst słowny poprawiony przez głównego skryptora; przed poprawieniem kolejność słów - "z swobodną myślą"	!	!	!
8G 8GG/	16bLL 16g/	.	<	4b\	z my -	kie-	.
.	16d/JJ	.	.	.	.	.	.
!LO:TUP:a	!	!	!	!	!	!	!
(<24F#\LL	16bLL 16g/	.	.	.	.	.	.
24G\	.	.	.	.	.	.	.
.	16d/JJ	.	.	.	.	.	.
24F#\JJ	.	.	.	.	.	.	.
*Xtuplet	*	*	*	*	*	*	*
24E\LL	16bLL 16g/	.	.	8cc\	-ślą	-dyż	.
24F#\	.	.	.	.	.	.	.
.	16c/	.	.	.	.	.	.
24E\JJ	.	.	.	.	.	.	.
24D\LL	16dd 16b 16g/	.	.	8dd\	swo-	ach	.
24E\	.	.	.	.	.	.	.
.	16d/JJ	.	[[	.	.	.	.
24D\JJ)	.	.	.	.	.	.	.
=51	=51	=51	=51	=51	=51	=51	=51
8C\	8ee 8a 8g/	.	sf	4.ee;>\	-bod-	Kie-	.
8r	8r	.	.	.	.	.	.
4r;>	4r;>	.	.	.	.	.	.
.	.	.	.	16cc\LL	-ną,	-dy	.
!	!	!	!LO:DY:b:t=ff.	!	!	!	!
.	.	.	ff	16a\JJ	.	.	.
=52	=52	=52	=52	=52	=52	=52	=52
!	!	!	!	!LO:TX:a:i:t=ralent.	!	!	!
8D/	8dd 8b 8g 8d/	.	.	4dd\	z psem	szczę-	.
8r	8r	.	sf	.	.	.	.
!	!	!	!LO:HP:b	!	!	!	!
(<4D 4DD/	(>4f# 4c 4A/	.	> ]]	8cc\	i	-ście	.
.	.	.	.	8a\	z so-	mi	.
=53	=53	=53	=53	=53	=53	=53	=53
!	!	!	!	!LO:TX:a:i:t=a tempo.	!	!	!
8GG 8GGG/)	8g 8B/)	.	.	8a/	-ko-	wró-	.
*tremolo	*	*	*	*	*	*	*
!	!	!	!LO:DY:b=2	!	!	!	!
8g 8d 8B 8G\L	8rff	.	ff	8g/	-łem!	-ci	.
8g 8d 8B 8G\	8rff	.	.	4r	.	.	.
.	8qeee/	.	.	.	.	.	.
8g 8d 8B 8G\J	(>16ddd\LL	.	.	.	.	.	.
.	16ccc#X\JJ	.	.	.	.	.	.
!!LO:LB:g=original
=54	=54	=54	=54	=54	=54	=54	=54
8g> 8d> 8B 8G\L	8ddd/)	.	.	2ryy	.	.	.
.	8qaa/	.	.	.	.	.	.
8g> 8d> 8B 8G\	(<16gg/LL	.	.	.	.	.	.
.	16ff#/JJ	.	.	.	.	.	.
8g> 8d> 8B 8G\	8gg/)	.	.	.	.	.	.
.	8qccc/	.	.	.	.	.	.
8g> 8d> 8B 8G\J	(<16bb/LL	.	.	.	.	.	.
.	16aa#X/JJ)	.	.	.	.	.	.
=55	=55	=55	=55	=55	=55	=55	=55
8g> 8d> 8B 8G\L	(<4bb/	.	.	2ryy	.	.	.
8g> 8d> 8B 8G\	.	.	.	.	.	.	.
8g> 8d> 8B 8G\	8dd/)	.	.	.	.	.	.
.	8qaa/	.	.	.	.	.	.
8g> 8d> 8B 8G\J	(<16gg/LL	.	.	.	.	.	.
.	16ff#/JJ	.	.	.	.	.	.
=56	=56	=56	=56	=56	=56	=56	=56
8g> 8d> 8B 8G\L	8gg/)	.	.	2ryy	.	.	.
!	!LO:TX:b:i:t=diminuen_do.:problem=dynamics with line extensions	!	!	!	!	!	!
!	!	!	!LO:HP:b:i:t=diminuen_do.:ext=ud	!	!	!	!
.	8qcc/	.	>	.	.	.	.
8g> 8d> 8B 8G\	(<16b/LL	.	.	.	.	.	.
.	16a#X/JJ	.	.	.	.	.	.
8g> 8d> 8B 8G\J	8b/)	.	.	.	.	.	.
.	8qff#/	.	.	.	.	.	.
8e> 8c#X> 8A 8G\	(<16ee/LL	.	.	.	.	.	.
.	16dd#X/JJ)	.	.	.	.	.	.
=57	=57	=57	=57	=57	=57	=57	=57
*	*^	*	*	*	*	*	*
!LO:TX:b:i:t=un poco ralent.. –	!	!	!	!	!	!	!	!
8A 8G\L	(4ee/	8e 8c#X\L	.	.	2ryy	.	.	.
8A 8G\	.	8e 8c#X\	.	.	.	.	.	.
8A 8G\	8a/)	8e 8c#X\J	.	.	.	.	.	.
*	*Xtremolo	*	*	*	*	*	*	*
.	8qffn/	.	.	.	.	.	.	.
8A 8G\J	(16ee-X/LL	8e-X 8cn\	.	.	.	.	.	.
.	16dd/JJ)	.	.	]	.	.	.	.
*	*v	*v	*	*	*	*	*	*
*kcancel	*kcancel	*	*	*	*	*	*
=58	=58	=58	=58	=58	=58	=58	=58
*k[b-e-]	*k[b-e-]	*	*	*	*	*	*
!LO:TX:t=P:problem=w źródle znaki przykluczowe Fn BB- E-	!LO:TX:t=P:problem=w źródle znaki przykluczowe fn b- ee-	!	!	!	!	!	!
8e-X> 8c> 8A 8G\L	(>4ee-/	.	.	2ryy	.	.	.
8e-X> 8c> 8A 8G\	.	.	.	.	.	.	.
8e-X> 8c> 8A 8G\J	8a/)	.	.	.	.	.	.
!	!	!	!LO:DY:b:t=p.	!	!	!	!
.	8qee-/	.	p	.	.	.	.
8d> 8A 8F#X\	(<16dd/LL	.	.	.	.	.	.
.	16cc#X/JJ)	.	.	.	.	.	.
=59	=59	=59	=59	=59	=59	=59	=59
!LO:TX:b:i:t=a tempo	!	!	!	!	!	!	!
8d 8A 8F#X\L	(<4dd/	.	.	2ryy	.	.	.
8d 8A 8F#X\J	.	.	.	.	.	.	.
*Xtremolo	*	*	*	*	*	*	*
8B-L 8G\	8g/)	.	.	.	.	.	.
8AJ 8Fn\	16g/L	.	.	.	.	.	.
.	16a/J	.	.	.	.	.	.
=60:|!	=60:|!	=60:|!	=60:|!	=60:|!	=60:|!	=60:|!	=60:|!
*>C	*>C	*	*	*>C	*	*	*
8GL 8E-'\	8cc/L	.	.	2ryy	.	.	.
8F 8D'\	8b-/	.	.	.	.	.	.
8E-J 8C'\	8a/J	.	.	.	.	.	.
!	!	!	!LO:DY:b:t=ff.	!	!	!	!
8D 8DD'/	8dd 8a 8f#X 8d'/	.	ff	.	.	.	.
=61	=61	=61	=61	=61	=61	=61	=61
*	*2\left	*	*	*	*	*	*
2G 2GG^^>/	2gg 2dd 2b- 2g^^>\	.	.	2ryy	.	.	.
==	==	==	==	==	==	==	==
*-	*-	*-	*-	*-	*-	*-	*-
!!!system-decoration: {(s1)(s2,s3)}
!!!RDF**kern: > = above
!!!RDF**kern: < = below
!!!EED: Antoni Szymański
!!!EST: 2021-04-15
!!!AIN: 1 forte 1 vox
!!!ENC: Marcin Jachim
!!!END: 2021-03-30
